lib/functional/office&editing/file-ppt.svg

<svg xmlns="http://www.w3.org/2000/svg" fill="none" stroke="currentColor" aria-hidden="true" viewBox="0 0 32 32"><g id="Icon-FilePpt"><g clip-path="url(#clip0_12_1415)"><g id="size=md (32px)"><g id="FilePpt"><path id="Vector" stroke-linecap="round" stroke-linejoin="round" stroke-width="2" d="M6 25H8C8.53043 25 9.03914 24.7893 9.41421 24.4142C9.78929 24.0391 10 23.5304 10 23C10 22.4696 9.78929 21.9609 9.41421 21.5858C9.03914 21.2107 8.53043 21 8 21H6V27"/><path id="Vector_2" stroke-linecap="round" stroke-linejoin="round" stroke-width="2" d="M14 25H16C16.5304 25 17.0391 24.7893 17.4142 24.4142C17.7893 24.0391 18 23.5304 18 23C18 22.4696 17.7893 21.9609 17.4142 21.5858C17.0391 21.2107 16.5304 21 16 21H14V27"/><path id="Vector_3" stroke-linecap="round" stroke-linejoin="round" stroke-width="2" d="M26 21H21.5"/><path id="Vector_4" stroke-linecap="round" stroke-linejoin="round" stroke-width="2" d="M23.75 27V21"/><path id="Vector_5" stroke-linecap="round" stroke-linejoin="round" stroke-width="2" d="M6 16V5C6 4.73478 6.10536 4.48043 6.29289 4.29289C6.48043 4.10536 6.73478 4 7 4H19L26 11V16"/><path id="Vector_6" stroke-linecap="round" stroke-linejoin="round" stroke-width="2" d="M19 4V11H26"/></g></g></g></g><defs><clipPath id="clip0_12_1415"><rect width="32" height="32" fill="white" rx="5"/></clipPath></defs></svg>

<svg xmlns="http://www.w3.org/2000/svg" fill="none" stroke="currentColor" aria-hidden="true" viewBox="0 0 32 32"><g stroke="#101828" stroke-linecap="round" stroke-linejoin="round" stroke-width="2" clip-path="url(#a)"><path d="M6 25h2a2 2 0 1 0 0-4H6v6m8-2h2a2 2 0 0 0 0-4h-2v6m12-6h-4.5m2.25 6v-6M6 16V5a1 1 0 0 1 1-1h12l7 7v5"/><path d="M19 4v7h7"/></g><defs><clipPath id="a"><rect width="32" height="32" fill="#fff" rx="5"/></clipPath></defs></svg>
